assets/logos/wikipedia.svg

<svg width="80" height="80" viewBox="0 0 80 80" fill="none" xmlns="http://www.w3.org/2000/svg">
<path fill-rule="evenodd" clip-rule="evenodd" d="M71.9975 20.4006C71.9975 20.625 71.9255 20.8376 71.7861 21.0349C71.6467 21.2191 71.4884 21.3195 71.3089 21.3195C69.8999 21.4589 68.7482 21.9101 67.86 22.6707C66.96 23.4313 66.0458 24.9089 65.0998 27.0621L50.5744 59.8121C50.4764 60.1239 50.2106 60.2633 49.7724 60.2633C49.4358 60.2633 49.1688 60.1109 48.9716 59.8121L40.8243 42.7839L31.4521 59.8121C31.2549 60.1239 31.0009 60.2633 30.6501 60.2633C30.2273 60.2633 29.9615 60.1109 29.8221 59.8121L15.5639 27.0763C14.6769 25.0495 13.7355 23.6263 12.7481 22.8243C11.7618 22.0223 10.3847 21.5133 8.62242 21.3325C8.46892 21.3325 8.32482 21.2475 8.19842 21.0951C8.05902 20.9416 8.00122 20.7573 8.00122 20.5447C8.00122 20.0085 8.15472 19.7427 8.45242 19.7427C9.71742 19.7427 11.0544 19.8007 12.4528 19.9152C13.7497 20.0274 14.9568 20.0876 16.0954 20.0876C17.247 20.0876 18.6312 20.0298 20.208 19.9152C21.8557 19.803 23.319 19.7427 24.5994 19.7427C24.91 19.7427 25.0506 20.0085 25.0506 20.5447C25.0506 21.081 24.9514 21.3325 24.7659 21.3325C23.5009 21.4317 22.4864 21.7565 21.7529 22.307C21.0194 22.8562 20.6533 23.572 20.6533 24.4731C20.6533 24.9243 20.8068 25.4995 21.1045 26.1763L32.8859 52.7999L39.5816 40.1631L33.3489 27.0893C32.2233 24.753 31.3079 23.2483 30.5921 22.5727C29.8776 21.8971 28.7779 21.4861 27.3157 21.3325C27.1764 21.3325 27.063 21.2475 26.9377 21.0951C26.8114 20.9416 26.7535 20.7573 26.7535 20.5447C26.7535 20.0085 26.8799 19.7427 27.1504 19.7427C28.4142 19.7427 29.5847 19.8007 30.6524 19.9152C31.6788 20.0274 32.7642 20.0876 33.9312 20.0876C35.0698 20.0876 36.2674 20.0298 37.5477 19.9152C38.8587 19.803 40.1509 19.7427 41.4171 19.7427C41.7277 19.7427 41.8683 20.0085 41.8683 20.5447C41.8683 21.081 41.7833 21.3325 41.5836 21.3325C39.0336 21.505 37.7686 22.2337 37.7686 23.4999C37.7686 24.0633 38.0674 24.9503 38.6556 26.1479L42.7824 34.5209L46.8892 26.8649C47.4526 25.7794 47.749 24.8653 47.749 24.1365C47.749 22.3885 46.484 21.4613 43.934 21.3479C43.7096 21.3479 43.5974 21.0833 43.5974 20.5601C43.5974 20.3628 43.6517 20.1963 43.7639 20.0238C43.8762 19.8526 43.9884 19.7723 44.1006 19.7723C45.0148 19.7723 46.1286 19.8301 47.4644 19.9447C48.7294 20.0569 49.7876 20.116 50.6038 20.116C51.1944 20.116 52.0542 20.0581 53.1928 19.9766C54.629 19.8502 55.8408 19.7794 56.8094 19.7794C57.0338 19.7794 57.146 20.0038 57.146 20.455C57.146 21.0585 56.9358 21.3691 56.5306 21.3691C55.0531 21.5215 53.8542 21.9325 52.9542 22.594C52.0542 23.2566 50.9262 24.7613 49.5774 27.126L44.0734 37.2008L51.4778 52.2872L62.4126 26.8566C62.7906 25.9294 62.976 25.0696 62.976 24.2948C62.976 22.4392 61.7122 21.4518 59.1622 21.3266C58.9378 21.3266 58.8244 21.0609 58.8244 20.5376C58.8244 20.0026 58.9921 19.7368 59.3334 19.7368C60.2618 19.7368 61.3614 19.7948 62.6394 19.9081C63.8194 20.0203 64.8068 20.0805 65.5946 20.0805C66.4402 20.0805 67.3958 20.0227 68.4954 19.9081C69.6328 19.7959 70.6604 19.7368 71.5745 19.7368C71.8592 19.7368 71.9985 19.9612 71.9985 20.4124L71.9975 20.4006Z" fill="black"/>
</svg>

<svg xmlns="http://www.w3.org/2000/svg" width="80" height="80" fill="none" viewBox="0 0 80 80"><path fill="#000" fill-rule="evenodd" d="M71.998 20.4q-.002.338-.212.635c-.14.184-.298.285-.477.285q-2.115.21-3.449 1.35c-.9.761-1.814 2.239-2.76 4.392l-14.526 32.75c-.098.312-.363.451-.802.451q-.504-.002-.8-.45l-8.148-17.03-9.372 17.03c-.197.31-.451.45-.802.45-.423 0-.688-.152-.828-.45L15.564 27.075c-.887-2.027-1.828-3.45-2.816-4.252-.986-.802-2.363-1.31-4.126-1.492-.153 0-.297-.085-.424-.237a.78.78 0 0 1-.197-.55c0-.537.154-.802.451-.802 1.265 0 2.602.058 4 .172 1.298.112 2.505.173 3.643.173a58 58 0 0 0 4.113-.173 66 66 0 0 1 4.391-.172c.311 0 .452.266.452.802s-.1.787-.285.787c-1.265.1-2.28.424-3.013.975s-1.1 1.265-1.1 2.166c0 .451.154 1.027.452 1.703L32.885 52.8l6.697-12.637-6.233-13.074c-1.126-2.336-2.041-3.84-2.757-4.516-.714-.676-1.814-1.087-3.276-1.24-.14 0-.253-.085-.378-.238a.84.84 0 0 1-.184-.55c0-.537.126-.802.396-.802 1.264 0 2.435.058 3.502.172 1.027.112 2.112.173 3.28.173 1.138 0 2.335-.058 3.616-.173a45 45 0 0 1 3.87-.172c.31 0 .45.266.45.802s-.085.787-.284.787c-2.55.173-3.815.902-3.815 2.168 0 .563.298 1.45.887 2.648l4.126 8.373 4.107-7.656c.564-1.086.86-2 .86-2.728 0-1.748-1.265-2.676-3.815-2.79q-.337-.001-.337-.787a.94.94 0 0 1 .167-.536c.112-.171.224-.252.337-.252.914 0 2.028.058 3.363.173 1.265.112 2.324.171 3.14.171.59 0 1.45-.058 2.589-.14 1.436-.126 2.648-.197 3.616-.197q.337 0 .337.676c0 .604-.21.914-.615.914-1.478.152-2.677.564-3.577 1.225-.9.663-2.028 2.167-3.377 4.532l-5.504 10.075 7.405 15.086 10.935-25.43c.378-.928.563-1.787.563-2.562 0-1.856-1.264-2.843-3.814-2.968q-.337-.002-.338-.79-.002-.8.51-.8 1.39 0 3.305.171c1.18.112 2.168.172 2.956.172.845 0 1.8-.057 2.9-.172a32 32 0 0 1 3.08-.171q.425 0 .424.675z" clip-rule="evenodd"/></svg>
